!!!COM: Bach, Johann Sebastian
!!!OPR: Joh. Seb. Bachs vierstimmige Choralges‰nge
!!!XEN: Four-part Chorales
!!!OTL: 24. Christ ist erstanden
!!!SCT: BWV 276
!!!SCA: Thematisch-systematisches Verzeichnis der musikalischen Werke Johann Sebastian Bach: Bach-Werke-Verzeichnis (Schmieder)
!!!YOR: Bach Gesellschaft Edition xxxix
!!!ENC: Steven Rasmussen
!!!CDT: 1685/3//-1750/7/28/
!!!OCY: Deutschland
!!!YEC: Copyright (c) 1994, 2000 Center for Computer Assisted Research in the Humanities
!!!YEM: Rights to all derivative editions reserved
!!!YEN: United States of America
**kern	**silbe	**kern	**silbe	**kern	**silbe	**kern	**silbe
*I:[SOPRANO]	*I:[SOPRANO]	*I:[ALTO]	*I:[ALTO]	*I:[TENORE]	*I:[TENORE]	*I:[BASSO]	*I:[BASSO]
*clefG2	*	*clefG2	*	*clefGv2	*	*clefF4	*
*k[]	*	*k[]	*	*k[]	*	*k[]	*
*a:	*	*a:	*	*a:	*	*a:	*
*M4/4	*	*M4/4	*	*M4/4	*	*M4/4	*
4a	Christ	4f	.	8dL	.	4D	.
.	.	.	.	8cJ	.	.	.
=1	=1	=1	=1	=1	=1	=1	=1
4g	ist	8fL	.	4B	.	8.EL	.
.	.	8eJ	.	.	.	.	.
.	.	.	.	.	.	16DJk	.
8aL	er-	8eL	er-	8cL	er-	8CL	.
8bJ	.	8g#J	.	8dJ	.	8BBJ	.
(4cc	-stan-	4.a	-stan-	8eL	-stan-	4AA	.
.	.	.	.	16fL	.	.	.
.	.	.	.	16eJJ	.	.	.
4dd)	.	.	.	4d	.	8.BB-L	.
.	.	[8gn	.	.	.	.	.
.	.	.	.	.	.	16CJk	.
=2	=2	=2	=2	=2	=2	=2	=2
2a;	-den	8gL]	.	2d;	-den	2D;	.
.	.	16fL	.	.	.	.	.
.	.	16eJJ	.	.	.	.	.
.	.	4f;	-den	.	.	.	.
4a	von	4e	.	4A	.	4C#	.
8fL	der	4d	.	4A	.	8DL	.
8gJ	.	.	.	.	.	8EJ	.
=3	=3	=3	=3	=3	=3	=3	=3
8aL	Mar-	8cL	.	4A	.	4.F	.
8gJ	.	8c#J	.	.	.	.	.
4f	-ter	4d	.	4A	.	.	.
.	.	.	.	.	.	8FF	.
(8eL	al-	8c#	.	8B-L	.	8GGL	.
8dJ	.	4d	.	8F	.	8BB-J	.
4e)	.	.	.	8G	.	4AA	.
.	.	8c#	.	16AL	.	.	.
.	.	.	.	16GJJ	.	.	.
=4	=4	=4	=4	=4	=4	=4	=4
2d;	-le:	2A;	.	2F;	.	2D;	.
4r	.	4r	.	4r	.	4r	.
4f	dess	4d	.	4A	.	4DD	.
=5	=5	=5	=5	=5	=5	=5	=5
4g	soll'n	8dL	.	8EL	.	4.EE	.
.	.	16cL	.	8FJ	.	.	.
.	.	16BJJ	.	.	.	.	.
4g	wir	4c	.	4G	.	.	.
.	.	.	.	.	.	8FF	.
4d	al-	(8c	.	(16GLL	.	8GGL	.
.	.	.	.	16DJJ	.	.	.
.	.	4B)	.	4E)	.	8GG#J	.
4c	-le	.	.	.	.	4AA	.
.	.	16ALL	.	16FLL	.	.	.
.	.	16B-JJ	.	16GJJ	.	.	.
=6	=6	=6	=6	=6	=6	=6	=6
(4f	froh	8cL	.	8AL	.	8AAL	.
.	.	8dJ	.	8FJ	.	8BB-	.
4g)	.	4e	.	4B-	.	8AA	.
.	.	.	.	.	.	8GGJ	.
4a;	sein;	4f;	.	4c;	.	4FF;	.
8aL	Chri-	4e	.	4A	.	4C#	.
8gJ	.	.	.	.	.	.	.
=7	=7	=7	=7	=7	=7	=7	=7
4f	-stus	(8e	.	4A	.	4D	.
.	.	4d)	.	.	.	.	.
4g	will	.	.	8GL	.	4E	.
.	.	8c#	.	8B-J	.	.	.
8aL	un-	4.d	.	4A	.	8FL	.
8gJ	.	.	.	.	.	8EJ	.
4f	-ser	.	.	16ALL	.	4D	.
.	.	.	.	16GJ	.	.	.
.	.	8cn	.	8AJ	.	.	.
=8	=8	=8	=8	=8	=8	=8	=8
(4e	Trost	8B-	.	16GLL	.	8DL	.
.	.	.	.	16FJ	.	.	.
.	.	4A	.	8GJ	.	8C#J	.
4d)	.	.	.	16FLL	.	4D	.
.	.	.	.	16EJ	.	.	.
.	.	8Bn	.	8FJ	.	.	.
2e;	sein.	2c#;	.	2E;	.	2AA;	.
=9	=9	=9	=9	=9	=9	=9	=9
4d	Ky-	4d	.	8AL	.	8FF#L	.
.	.	.	.	8GJ	.	8EEJ	.
4d	-rie	4c	.	8AL	.	8FF#L	.
.	.	.	.	8F#J	.	8DDJ	.
2d	e-	4c	e-	8GL	e-	8GGL	e-
.	.	.	.	8DJ	.	8AA	.
.	.	[4B-	.	[4G	.	8BB-	.
.	.	.	.	.	.	8GGJ	.
=10	=10	=10	=10	=10	=10	=10	=10
1d;	-leis!	4B-]	.	4G]	.	(2D	-leis!
.	.	8AL	.	8F#L	.	.	.
.	.	8GJ	.	8EJ	.	.	.
.	.	2A;	-leis!	2F#;	-leis!	2DD;)	.
=11||	=11||	=11||	=11||	=11||	=11||	=11||	=11||
4a	W√§r'	4f	.	4d	.	8DL	.
.	.	.	.	.	.	8EJ	.
4a	er	8eL	.	8cL	.	4F	.
.	.	8dJ	.	8BJ	.	.	.
4g	nicht	8gL	.	4c	.	8FL	.
.	.	8b-J	.	.	.	8EJ	.
8aL	er-	8aL	.	4c	.	8FL	.
8b-J	.	8gJ	.	.	.	8GJ	.
=12	=12	=12	=12	=12	=12	=12	=12
(4cc	-stan-	2f	.	4.c	.	8AL	.
.	.	.	.	.	.	8FJ	.
4dd)	.	.	.	.	.	4B-	.
.	.	.	.	8B-	.	.	.
4a;	-den,	4f;	.	4c;	.	4F;	.
4a	so	4f	.	8cL	.	4F	.
.	.	.	.	8dJ	.	.	.
=13	=13	=13	=13	=13	=13	=13	=13
8.aL	w√§r'	4e	.	(8e	.	4C#	.
.	.	.	.	4A)	.	.	.
16gJk	.	.	.	.	.	.	.
8fL	die	8dL	.	.	.	4D	.
8gJ	.	8eJ	.	8G	.	.	.
8aL	Welt	8fL	.	8FL	.	8DL	.
8gJ	.	8c#J	.	8GJ	.	8EJ	.
4f	ver-	4d	.	4A	.	8FL	.
.	.	.	.	.	.	8GJ	.
=14	=14	=14	=14	=14	=14	=14	=14
(8eL	-gan-	4d	.	4.A	.	4A	.
8dJ	.	.	.	.	.	.	.
4e)	.	4c#	.	.	.	4AA	.
.	.	.	.	8G	.	.	.
4d;	-gen:	4d;	.	4F;	.	4BB-;	.
4f	seit	4cn	.	4A	.	4AA	.
=15	=15	=15	=15	=15	=15	=15	=15
4g	dass	8cL	.	8GL	.	8EEL	.
.	.	8BJ	.	8FJ	.	8DDJ	.
4g	er	4c	.	4G	.	8EEL	.
.	.	.	.	.	.	8FFJ	.
4d	nun	(8c	.	8.GL	.	4GG	.
.	.	4B-)	.	.	.	.	.
.	.	.	.	16FJk	.	.	.
4c	er-	.	.	4E	.	4AA	.
.	.	16ALL	.	.	.	.	.
.	.	16GJJ	.	.	.	.	.
=16	=16	=16	=16	=16	=16	=16	=16
4f	-stan-	4c	.	4A	.	8AAL	.
.	.	.	.	.	.	8GGJ	.
4g	-den	4c	.	4G	.	8FFL	.
.	.	.	.	.	.	8EEJ	.
4a;	ist,	4c;	.	4F;	.	4FF;	.
4a	so	8cL	.	8AL	.	8FL	.
.	.	8c#J	.	8GJ	.	8EJ	.
=17	=17	=17	=17	=17	=17	=17	=17
8aL	lo-	4d	.	8FL	.	[2D	lo-
8gJ	.	.	.	8EJ	.	.	.
8.fL	-ben	4A	.	8DL	.	.	.
.	.	.	.	8EJ	.	.	.
16gJk	.	.	.	.	.	.	.
4a	wir	4d	.	8FL	.	8D]	.
.	.	.	.	8GJ	.	8E	-ben
4f	den	4d	.	4A	.	8F	wir
.	.	.	.	.	.	8G	den
=18	=18	=18	=18	=18	=18	=18	=18
4e	Her-	(8d	.	8AL	.	8AL	.
.	.	4c)	.	8EJ	.	8AAJ	.
4d	-ren	.	.	4F	.	4D	.
.	.	8B	.	.	.	.	.
2e;	Christ.	2c;	.	2G;	.	2C;	.
=19	=19	=19	=19	=19	=19	=19	=19
4d	Ky-	8cL	Ky-	(8A	Ky-	8FF#L	Ky-
.	.	8B-J	.	4G)	.	8GGJ	.
4d	-rie	4A	-rie	.	.	4.C	-rie
.	.	.	.	8F#	-rie	.	.
2d	e-	4.G	e-	8GL	e-	.	.
.	.	.	.	8DJ	.	16BB-LL	e-
.	.	.	.	.	.	16AAJJ	.
.	.	.	.	[4G	.	8BB-L	.
.	.	8B-	.	.	.	8GGJ	.
=20	=20	=20	=20	=20	=20	=20	=20
1d;	-leis!	1A;	-leis!	4G]	.	(2D	-leis!
.	.	.	.	8F#L	.	.	.
.	.	.	.	8EJ	.	.	.
.	.	.	.	2F#;	-leis!	2DD;)	.
=21:||:	=21:||:	=21:||:	=21:||:	=21:||:	=21:||:	=21:||:	=21:||:
4a	Al-	4e	.	4A	.	4C#	.
=22	=22	=22	=22	=22	=22	=22	=22
4f	-le-	4d	.	8AL	.	4D	.
.	.	.	.	8B-J	.	.	.
4cc	-lu-	4c	.	8AL	.	4E	.
.	.	.	.	8GJ	.	.	.
4a;	-ja,	4c;	.	4F;	.	4F;	.
8ccL	al-	8cL	.	4F	.	8AAL	.
8b-J	.	8dJ	.	.	.	8BB-J	.
=23	=23	=23	=23	=23	=23	=23	=23
4a	-le-	(8e	.	4.c	.	4C	.
.	.	4f)	.	.	.	.	.
4g	-lu-	.	.	.	.	4CC	.
.	.	8e	.	8B-	.	.	.
4f;	-ja,	4c;	.	4A;	.	4FF;	.
8aL	al-	4e	.	4A	.	4C#	.
8gJ	.	.	.	.	.	.	.
=24	=24	=24	=24	=24	=24	=24	=24
4f	-le-	(8e	.	4A	.	8DL	.
.	.	4d)	.	.	.	8DDJ	.
4e	-lu-	.	.	8GL	.	8EEL	.
.	.	8c	.	8AJ	.	8FF#J	.
4d;	-ja!	8cL	.	4D;	.	4GG;	.
.	.	8B-;J	.	.	.	.	.
4f	Dess	4c	.	8AL	.	4AA	.
.	.	.	.	8FJ	.	.	.
=25	=25	=25	=25	=25	=25	=25	=25
4g	soll'n	4d	.	(16DLL	.	4BB	.
.	.	.	.	16EJJ	.	.	.
.	.	.	.	4F)	.	.	.
4g	wir	8cL	.	.	.	4C	.
.	.	8GJ	.	8E	.	.	.
4d	al-	8AL	.	8F#L	.	8CL	.
.	.	8BJ	.	8G#J	.	8BBJ	.
4c	-le	8cL	.	8AL	.	4AA	.
.	.	8B-J	.	8GnJ	.	.	.
=26	=26	=26	=26	=26	=26	=26	=26
(4f	froh	16ALL	.	16FLL	.	8AAL	.
.	.	16GJ	.	16EJJ	.	.	.
.	.	8A	.	4F	.	8D	.
4g)	.	8d	.	.	.	8BB-	.
.	.	8cJ	.	8E	.	8CJ	.
4a;	sein;	4c;	.	4F;	.	4F;	.
8aL	Chri-	8fL	.	4c	.	4FF	.
8gJ	.	8eJ	.	.	.	.	.
=27	=27	=27	=27	=27	=27	=27	=27
4f	-stus	4d	.	8cL	.	4BB-	.
.	.	.	.	16B-L	.	.	.
.	.	.	.	16AJJ	.	.	.
4g	will	8dL	.	4G	.	8E-L	.
.	.	16cL	.	.	.	8DJ	.
.	.	16B-JJ	.	.	.	.	.
4a	un-	4A	.	8GL	.	8C#L	.
.	.	.	.	16FL	.	8AAJ	.
.	.	.	.	16EJJ	.	.	.
4f	-ser	8AL	.	8FL	.	4D	.
.	.	16dL	.	16B-L	.	.	.
.	.	16cJJ	.	16AJJ	.	.	.
=28	=28	=28	=28	=28	=28	=28	=28
(4e	Trost	8B	.	8G#L	.	8DL	.
.	.	4A	.	8A	.	8CJ	.
4d)	.	.	.	8d	.	4BB	.
.	.	8G#	.	8DJ	.	.	.
2e;	sein.	2c#;	.	2A;	.	2AA;	.
=29	=29	=29	=29	=29	=29	=29	=29
4d	Ky-	4d	.	8FL	Ky-	8BB-L	Ky-
.	.	.	.	8GJ	.	8AAJ	.
4d	-rie	4c	.	[4A	-rie	8GGL	-rie
.	.	.	.	.	.	8FF#J	.
2d	e-	8B-L	e-	8AL]	.	8GGL	e-
.	.	8AJ	.	16GL	.	8AA	.
.	.	.	.	16F#JJ	.	.	.
.	.	16GLL	.	[4G	e-	8BB-	.
.	.	16AJ	.	.	.	.	.
.	.	[8B-J	.	.	.	8GGJ	.
=30	=30	=30	=30	=30	=30	=30	=30
1d;	-leis!	8B-L]	.	8GL]	.	1DD;	-leis!
.	.	8A	.	8F#	.	.	.
.	.	8B-	.	8G	.	.	.
.	.	8GJ	.	8EJ	.	.	.
.	.	2A;	-leis!	2F#;	-leis!	.	.
==|!	==|!	==|!	==|!	==|!	==|!	==|!	==|!
*-	*-	*-	*-	*-	*-	*-	*-
!!!RWG: Key is interpreted using the Humdrum key tool.
!!!END: 1994/05/11
!!!EMD: Converted from MuseData to Humdrum Dec 19, 2000, by Andreas Kornstaedt using muse2kern.
!!!EED: Craig Stuart Sapp
!!!EEV: 2024/03/31
!!!ONB: Some non-unicode characters
